X: 42913
T: Will You Come Home With Me?
R: jig
M: 6/8
K: Gmajor
|:dge fdc|~B2d BAG|F2G ABA|GBG ABc|
dge fdc|~B2d BAG|F2G ABA|1 GAB G2A:|2 GAB G2B/c/||
|:d2B c2A|B2d cAF|~G3 ABA|GBG ABc|
dBB cAA|~B2d cAF|~G3 ABA|1 GAB GAB:|2 GAB G2A||

